images/navi/down.svg

<?xml version="1.0" encoding="UTF-8" standalone="no"?>
<!-- Created with Inkscape (http://www.inkscape.org/) -->

<svg
   xmlns:dc="http://purl.org/dc/elements/1.1/"
   xmlns:cc="http://creativecommons.org/ns#"
   xmlns:rdf="http://www.w3.org/1999/02/22-rdf-syntax-ns#"
   xmlns:svg="http://www.w3.org/2000/svg"
   xmlns="http://www.w3.org/2000/svg"
   xmlns:xlink="http://www.w3.org/1999/xlink"
   xmlns:sodipodi="http://sodipodi.sourceforge.net/DTD/sodipodi-0.dtd"
   xmlns:inkscape="http://www.inkscape.org/namespaces/inkscape"
   sodipodi:docname="down.svg"
   inkscape:version="0.91 r"
   sodipodi:version="0.32"
   id="svg11300"
   height="32"
   width="32"
   inkscape:export-filename="/home/jimmac/Desktop/wi-fi.png"
   inkscape:export-xdpi="90.000000"
   inkscape:export-ydpi="90.000000"
   inkscape:output_extension="org.inkscape.output.svg.inkscape"
   version="1.1">
  <defs
     id="defs3">
    <linearGradient
       id="linearGradient1442">
      <stop
         id="stop1444"
         offset="0"
         style="stop-color:#73d216" />
      <stop
         id="stop1446"
         offset="1.0000000"
         style="stop-color:#4e9a06" />
    </linearGradient>
    <linearGradient
       id="linearGradient8662"
       inkscape:collect="always">
      <stop
         id="stop8664"
         offset="0"
         style="stop-color:#000000;stop-opacity:1;" />
      <stop
         id="stop8666"
         offset="1"
         style="stop-color:#000000;stop-opacity:0;" />
    </linearGradient>
    <linearGradient
       id="linearGradient8650"
       inkscape:collect="always">
      <stop
         id="stop8652"
         offset="0"
         style="stop-color:#ffffff;stop-opacity:1;" />
      <stop
         id="stop8654"
         offset="1"
         style="stop-color:#ffffff;stop-opacity:0;" />
    </linearGradient>
    <radialGradient
       inkscape:collect="always"
       xlink:href="#linearGradient8662"
       id="radialGradient1444"
       gradientUnits="userSpaceOnUse"
       gradientTransform="matrix(0.73141513,0,0,0.19247748,-1.7234547,32.978488)"
       cx="24.837126"
       cy="36.421127"
       fx="24.837126"
       fy="36.421127"
       r="15.644737" />
    <radialGradient
       inkscape:collect="always"
       xlink:href="#linearGradient1442"
       id="radialGradient1469"
       gradientUnits="userSpaceOnUse"
       gradientTransform="matrix(0,-0.843022,1.020168,0,0.606436,42.58614)"
       cx="35.292667"
       cy="20.494493"
       fx="35.292667"
       fy="20.494493"
       r="16.9562" />
    <radialGradient
       inkscape:collect="always"
       xlink:href="#linearGradient8650"
       id="radialGradient1471"
       gradientUnits="userSpaceOnUse"
       gradientTransform="matrix(0,-2.046729,-1.55761,0,44.11559,66.93275)"
       cx="15.987216"
       cy="1.5350308"
       fx="15.987216"
       fy="1.5350308"
       r="17.171415" />
  </defs>
  <sodipodi:namedview
     inkscape:window-y="25"
     inkscape:window-x="0"
     inkscape:window-height="885"
     inkscape:window-width="1280"
     inkscape:showpageshadow="false"
     inkscape:document-units="px"
     inkscape:grid-bbox="true"
     showgrid="false"
     inkscape:current-layer="layer1"
     inkscape:cy="23.239067"
     inkscape:cx="30.468505"
     inkscape:zoom="11.313708"
     inkscape:pageshadow="2"
     inkscape:pageopacity="0.0"
     borderopacity="0.25490196"
     bordercolor="#666666"
     pagecolor="#ffffff"
     id="base"
     fill="#4e9a06"
     stroke="#4e9a06"
     inkscape:window-maximized="0" />
  <metadata
     id="metadata4">
    <rdf:RDF>
      <cc:Work
         rdf:about="">
        <dc:format>image/svg+xml</dc:format>
        <dc:type
           rdf:resource="http://purl.org/dc/dcmitype/StillImage" />
        <dc:creator>
          <cc:Agent>
            <dc:title>Jakub Steiner</dc:title>
          </cc:Agent>
        </dc:creator>
        <dc:source>http://jimmac.musichall.cz</dc:source>
        <cc:license
           rdf:resource="http://creativecommons.org/licenses/by-sa/2.0/" />
        <dc:title>Go Down</dc:title>
        <dc:subject>
          <rdf:Bag>
            <rdf:li>go</rdf:li>
            <rdf:li>lower</rdf:li>
            <rdf:li>down</rdf:li>
            <rdf:li>arrow</rdf:li>
            <rdf:li>pointer</rdf:li>
            <rdf:li>&gt;</rdf:li>
          </rdf:Bag>
        </dc:subject>
        <dc:contributor>
          <cc:Agent>
            <dc:title>Andreas Nilsson</dc:title>
          </cc:Agent>
        </dc:contributor>
      </cc:Work>
      <cc:License
         rdf:about="http://creativecommons.org/licenses/by-sa/2.0/">
        <cc:permits
           rdf:resource="http://web.resource.org/cc/Reproduction" />
        <cc:permits
           rdf:resource="http://web.resource.org/cc/Distribution" />
        <cc:requires
           rdf:resource="http://web.resource.org/cc/Notice" />
        <cc:requires
           rdf:resource="http://web.resource.org/cc/Attribution" />
        <cc:permits
           rdf:resource="http://web.resource.org/cc/DerivativeWorks" />
        <cc:requires
           rdf:resource="http://web.resource.org/cc/ShareAlike" />
      </cc:License>
    </rdf:RDF>
  </metadata>
  <g
     inkscape:groupmode="layer"
     inkscape:label="Layer 1"
     id="layer1"
     transform="translate(0,-16)">
    <ellipse
       id="path8660"
       style="color:#000000;display:inline;overflow:visible;visibility:visible;opacity:0.20454544;fill:url(#radialGradient1444);fill-opacity:1;fill-rule:evenodd;stroke:none;stroke-width:1;stroke-linecap:butt;stroke-linejoin:miter;stroke-miterlimit:10;stroke-dasharray:none;stroke-dashoffset:0;stroke-opacity:1;marker:none;marker-start:none;marker-mid:none;marker-end:none"
       cx="16.442795"
       cy="39.988735"
       rx="11.442798"
       ry="3.0112607" />
    <g
       id="g1464"
       transform="matrix(-0.60225245,0,0,-0.60225245,30.311802,43.601776)">
      <path
         style="color:#000000;display:inline;overflow:visible;visibility:visible;opacity:1;fill:url(#radialGradient1469);fill-opacity:1;fill-rule:evenodd;stroke:#3a7304;stroke-width:1.00000036;stroke-linecap:round;stroke-linejoin:round;stroke-miterlimit:10;stroke-dasharray:none;stroke-dashoffset:0;stroke-opacity:1;marker:none;marker-start:none;marker-mid:none;marker-end:none"
         d="m 14.519136,38.5 18.005029,-0.0039 0,-12.991626 7.995366,-0.0078 L 23.374809,5.4992135 6.5285585,25.497284 14.52444,25.501074 14.519136,38.5 Z"
         id="path8643"
         sodipodi:nodetypes="cccccccc"
         inkscape:connector-curvature="0" />
      <path
         style="color:#000000;display:inline;overflow:visible;visibility:visible;opacity:0.5080214;fill:url(#radialGradient1471);fill-opacity:1;fill-rule:evenodd;stroke:none;stroke-width:1;stroke-linecap:round;stroke-linejoin:round;stroke-miterlimit:10;stroke-dasharray:none;stroke-dashoffset:0;stroke-opacity:1;marker:none;marker-start:none;marker-mid:none;marker-end:none"
         d="m 39.429889,24.993467 -7.406391,0.01172 0.0027,12.992837 -15.378556,-0.0092 C 17.417545,19.64788 27.370272,26.995797 32.029282,16.341991 l 7.400607,8.651476 z"
         id="path8645"
         sodipodi:nodetypes="cccccc"
         inkscape:connector-curvature="0" />
      <path
         sodipodi:nodetypes="cccccccc"
         id="path8658"
         d="m 15.520704,37.496094 16.001405,0.0039 0,-12.99295 6.816811,-0.01563 L 23.384644,7.0388396 8.6781173,24.495782 l 6.8399007,0.0052 0.0027,12.995065 z"
         style="color:#000000;display:inline;overflow:visible;visibility:visible;opacity:0.48128339;fill:none;fill-opacity:1;fill-rule:evenodd;stroke:#ffffff;stroke-width:1.00000036;stroke-linecap:butt;stroke-linejoin:miter;stroke-miterlimit:10;stroke-dasharray:none;stroke-dashoffset:0;stroke-opacity:1;marker:none;marker-start:none;marker-mid:none;marker-end:none"
         inkscape:connector-curvature="0" />
    </g>
  </g>
</svg>

<?xml version="1.0" encoding="UTF-8" standalone="no"?>
<!-- Created with Inkscape (http://www.inkscape.org/) -->
<svg
   xmlns:dc="http://purl.org/dc/elements/1.1/"
   xmlns:cc="http://web.resource.org/cc/"
   xmlns:rdf="http://www.w3.org/1999/02/22-rdf-syntax-ns#"
   xmlns:svg="http://www.w3.org/2000/svg"
   xmlns="http://www.w3.org/2000/svg"
   xmlns:xlink="http://www.w3.org/1999/xlink"
   xmlns:sodipodi="http://inkscape.sourceforge.net/DTD/sodipodi-0.dtd"
   xmlns:inkscape="http://www.inkscape.org/namespaces/inkscape"
   sodipodi:docname="go-down.svg"
   sodipodi:docbase="/home/tigert/cvs/freedesktop.org/tango-icon-theme/scalable/actions"
   inkscape:version="0.43+devel"
   sodipodi:version="0.32"
   id="svg11300"
   height="48px"
   width="48px"
   inkscape:export-filename="/home/jimmac/Desktop/wi-fi.png"
   inkscape:export-xdpi="90.000000"
   inkscape:export-ydpi="90.000000"
   inkscape:output_extension="org.inkscape.output.svg.inkscape">
  <defs
     id="defs3">
    <linearGradient
       id="linearGradient1442">
      <stop
         id="stop1444"
         offset="0"
         style="stop-color:#73d216" />
      <stop
         id="stop1446"
         offset="1.0000000"
         style="stop-color:#4e9a06" />
    </linearGradient>
    <linearGradient
       id="linearGradient8662"
       inkscape:collect="always">
      <stop
         id="stop8664"
         offset="0"
         style="stop-color:#000000;stop-opacity:1;" />
      <stop
         id="stop8666"
         offset="1"
         style="stop-color:#000000;stop-opacity:0;" />
    </linearGradient>
    <linearGradient
       id="linearGradient8650"
       inkscape:collect="always">
      <stop
         id="stop8652"
         offset="0"
         style="stop-color:#ffffff;stop-opacity:1;" />
      <stop
         id="stop8654"
         offset="1"
         style="stop-color:#ffffff;stop-opacity:0;" />
    </linearGradient>
    <radialGradient
       inkscape:collect="always"
       xlink:href="#linearGradient8662"
       id="radialGradient1444"
       gradientUnits="userSpaceOnUse"
       gradientTransform="matrix(1.000000,0.000000,0.000000,0.536723,1.614716e-15,16.87306)"
       cx="24.837126"
       cy="36.421127"
       fx="24.837126"
       fy="36.421127"
       r="15.644737" />
    <radialGradient
       inkscape:collect="always"
       xlink:href="#linearGradient1442"
       id="radialGradient1469"
       gradientUnits="userSpaceOnUse"
       gradientTransform="matrix(1.871885e-16,-0.843022,1.020168,2.265228e-16,0.606436,42.58614)"
       cx="35.292667"
       cy="20.494493"
       fx="35.292667"
       fy="20.494493"
       r="16.956199" />
    <radialGradient
       inkscape:collect="always"
       xlink:href="#linearGradient8650"
       id="radialGradient1471"
       gradientUnits="userSpaceOnUse"
       gradientTransform="matrix(3.749427e-16,-2.046729,-1.557610,-2.853404e-16,44.11559,66.93275)"
       cx="15.987216"
       cy="1.5350308"
       fx="15.987216"
       fy="1.5350308"
       r="17.171415" />
  </defs>
  <sodipodi:namedview
     inkscape:window-y="25"
     inkscape:window-x="0"
     inkscape:window-height="885"
     inkscape:window-width="1280"
     inkscape:showpageshadow="false"
     inkscape:document-units="px"
     inkscape:grid-bbox="true"
     showgrid="false"
     inkscape:current-layer="layer1"
     inkscape:cy="23.239067"
     inkscape:cx="30.291728"
     inkscape:zoom="11.313708"
     inkscape:pageshadow="2"
     inkscape:pageopacity="0.0"
     borderopacity="0.25490196"
     bordercolor="#666666"
     pagecolor="#ffffff"
     id="base"
     fill="#4e9a06"
     stroke="#4e9a06" />
  <metadata
     id="metadata4">
    <rdf:RDF>
      <cc:Work
         rdf:about="">
        <dc:format>image/svg+xml</dc:format>
        <dc:type
           rdf:resource="http://purl.org/dc/dcmitype/StillImage" />
        <dc:creator>
          <cc:Agent>
            <dc:title>Jakub Steiner</dc:title>
          </cc:Agent>
        </dc:creator>
        <dc:source>http://jimmac.musichall.cz</dc:source>
        <cc:license
           rdf:resource="http://creativecommons.org/licenses/by-sa/2.0/" />
        <dc:title>Go Down</dc:title>
        <dc:subject>
          <rdf:Bag>
            <rdf:li>go</rdf:li>
            <rdf:li>lower</rdf:li>
            <rdf:li>down</rdf:li>
            <rdf:li>arrow</rdf:li>
            <rdf:li>pointer</rdf:li>
            <rdf:li>&gt;</rdf:li>
          </rdf:Bag>
        </dc:subject>
        <dc:contributor>
          <cc:Agent>
            <dc:title>Andreas Nilsson</dc:title>
          </cc:Agent>
        </dc:contributor>
      </cc:Work>
      <cc:License
         rdf:about="http://creativecommons.org/licenses/by-sa/2.0/">
        <cc:permits
           rdf:resource="http://web.resource.org/cc/Reproduction" />
        <cc:permits
           rdf:resource="http://web.resource.org/cc/Distribution" />
        <cc:requires
           rdf:resource="http://web.resource.org/cc/Notice" />
        <cc:requires
           rdf:resource="http://web.resource.org/cc/Attribution" />
        <cc:permits
           rdf:resource="http://web.resource.org/cc/DerivativeWorks" />
        <cc:requires
           rdf:resource="http://web.resource.org/cc/ShareAlike" />
      </cc:License>
    </rdf:RDF>
  </metadata>
  <g
     inkscape:groupmode="layer"
     inkscape:label="Layer 1"
     id="layer1">
    <path
       transform="matrix(1.214466,0.000000,0.000000,0.595458,-6.163846,16.31275)"
       d="M 40.481863 36.421127 A 15.644737 8.3968935 0 1 1  9.1923885,36.421127 A 15.644737 8.3968935 0 1 1  40.481863 36.421127 z"
       sodipodi:ry="8.3968935"
       sodipodi:rx="15.644737"
       sodipodi:cy="36.421127"
       sodipodi:cx="24.837126"
       id="path8660"
       style="opacity:0.20454545;color:#000000;fill:url(#radialGradient1444);fill-opacity:1.0000000;fill-rule:evenodd;stroke:none;stroke-width:1.0000000;stroke-linecap:butt;stroke-linejoin:miter;marker:none;marker-start:none;marker-mid:none;marker-end:none;stroke-miterlimit:10.000000;stroke-dasharray:none;stroke-dashoffset:0.0000000;stroke-opacity:1.0000000;visibility:visible;display:inline;overflow:visible"
       sodipodi:type="arc" />
    <g
       id="g1464"
       transform="matrix(-1.000000,0.000000,0.000000,-1.000000,47.02856,43.99921)">
      <path
         style="opacity:1.0000000;color:#000000;fill:url(#radialGradient1469);fill-opacity:1.0000000;fill-rule:evenodd;stroke:#3a7304;stroke-width:1.0000004;stroke-linecap:round;stroke-linejoin:round;marker:none;marker-start:none;marker-mid:none;marker-end:none;stroke-miterlimit:10.000000;stroke-dasharray:none;stroke-dashoffset:0.0000000;stroke-opacity:1;visibility:visible;display:inline;overflow:visible"
         d="M 14.519136,38.500000 L 32.524165,38.496094 L 32.524165,25.504468 L 40.519531,25.496656 L 23.374809,5.4992135 L 6.5285585,25.497284 L 14.524440,25.501074 L 14.519136,38.500000 z "
         id="path8643"
         sodipodi:nodetypes="cccccccc" />
      <path
         style="opacity:0.50802141;color:#000000;fill:url(#radialGradient1471);fill-opacity:1.0000000;fill-rule:evenodd;stroke:none;stroke-width:1.0000000;stroke-linecap:round;stroke-linejoin:round;marker:none;marker-start:none;marker-mid:none;marker-end:none;stroke-miterlimit:10.000000;stroke-dasharray:none;stroke-dashoffset:0.0000000;stroke-opacity:1.0000000;visibility:visible;display:inline;overflow:visible"
         d="M 39.429889,24.993467 L 32.023498,25.005186 L 32.026179,37.998023 L 16.647623,37.98887 C 17.417545,19.64788 27.370272,26.995797 32.029282,16.341991 L 39.429889,24.993467 z "
         id="path8645"
         sodipodi:nodetypes="cccccc" />
      <path
         sodipodi:nodetypes="cccccccc"
         id="path8658"
         d="M 15.520704,37.496094 L 31.522109,37.500000 L 31.522109,24.507050 L 38.338920,24.491425 L 23.384644,7.0388396 L 8.6781173,24.495782 L 15.518018,24.501029 L 15.520704,37.496094 z "
         style="opacity:0.48128340;color:#000000;fill:none;fill-opacity:1.0000000;fill-rule:evenodd;stroke:#ffffff;stroke-width:1.0000004;stroke-linecap:butt;stroke-linejoin:miter;marker:none;marker-start:none;marker-mid:none;marker-end:none;stroke-miterlimit:10.000000;stroke-dasharray:none;stroke-dashoffset:0.0000000;stroke-opacity:1.0000000;visibility:visible;display:inline;overflow:visible" />
    </g>
  </g>
</svg>
